X: 2182
T: the WHIGS OF FIFE
Q: "Reel."
R: Reel.
%R: reel
B: James Kerr "Merry Melodies" v.2 p.21 #182
Z: 2016 John Chambers <jc:trillian.mit.edu>
M: C
L: 1/8
K: F
uf |\
cF F/F/F (AG)GA | cF F/F/F (fg)ag |\
fF F/F/F (AG)GA | FDE^C D3 ::\
ue |\
fccf gdde | fccd fgag |\
fccf gdde | (f/g/a) (gf) d3 :|
